src/icons/System/32/Rating_1_32.svg

<?xml version="1.0" encoding="utf-8"?>
<!-- Generator: Adobe Illustrator 23.0.1, SVG Export Plug-In . SVG Version: 6.00 Build 0)  -->
<svg version="1.1" id="Layer_1" xmlns="http://www.w3.org/2000/svg" xmlns:xlink="http://www.w3.org/1999/xlink" x="0px" y="0px"
	 viewBox="0 0 40 40" style="enable-background:new 0 0 40 40;" xml:space="preserve">
<title>Source/System Icons/32/Rating_1_32</title>
<desc>Created with Sketch.</desc>
<path d="M25.8,26.4C24.1,24.1,22.3,23,20,23s-4.1,1.1-5.8,3.4l1.6,1.2c1.4-1.8,2.6-2.6,4.2-2.6s2.8,0.8,4.2,2.6L25.8,26.4z M15,14
	c1.1,0,2,0.9,2,2s-0.9,2-2,2s-2-0.9-2-2S13.9,14,15,14z M25,14c1.1,0,2,0.9,2,2s-0.9,2-2,2s-2-0.9-2-2S23.9,14,25,14z M20,36
	c-8.8,0-16-7.2-16-16S11.2,4,20,4s16,7.2,16,16S28.8,36,20,36z M20,34c7.7,0,14-6.3,14-14S27.7,6,20,6S6,12.3,6,20S12.3,34,20,34z"
	/>
</svg>

<?xml version="1.0" encoding="UTF-8"?>
<svg viewBox="0 0 40 40" version="1.1" xmlns="http://www.w3.org/2000/svg" xmlns:xlink="http://www.w3.org/1999/xlink">
    <!-- Generator: Sketch 51.2 (57519) - http://www.bohemiancoding.com/sketch -->
    <title>Source/System Icons/32/Rating_1_32</title>
    <desc>Created with Sketch.</desc>
    <defs>
        <path d="M25.8,26.4 C24.1,24.1 22.3,23 20,23 C17.7,23 15.9,24.1 14.2,26.4 L15.8,27.6 C17.2,25.8 18.4,25 20,25 C21.6,25 22.8,25.8 24.2,27.6 L25.8,26.4 Z M15,14 C16.1,14 17,14.9 17,16 C17,17.1 16.1,18 15,18 C13.9,18 13,17.1 13,16 C13,14.9 13.9,14 15,14 Z M25,14 C26.1,14 27,14.9 27,16 C27,17.1 26.1,18 25,18 C23.9,18 23,17.1 23,16 C23,14.9 23.9,14 25,14 Z M20,36 C11.2,36 4,28.8 4,20 C4,11.2 11.2,4 20,4 C28.8,4 36,11.2 36,20 C36,28.8 28.8,36 20,36 Z M20,34 C27.7,34 34,27.7 34,20 C34,12.3 27.7,6 20,6 C12.3,6 6,12.3 6,20 C6,27.7 12.3,34 20,34 Z" id="path-1"></path>
    </defs>
    <g id="Source/System-Icons/32/Rating_1_32" stroke="none" stroke-width="1" fill="none" fill-rule="evenodd">
        <mask id="mask-2" fill="white">
            <use xlink:href="#path-1"></use>
        </mask>
        <use id="Shape" fill="#000000" fill-rule="nonzero" xlink:href="#path-1"></use>
        <g id="Colors/Basic/Fresh-Asphalt" mask="url(#mask-2)" fill="#000000">
            <rect id="Rectangle" x="0" y="0" width="40" height="40"></rect>
        </g>
    </g>
</svg>
